src/icons/svg/kiwicom.svg

<!--description:Our logo, use for company related links like Press Kit or About page.-->
<!--category:kiwicom-->
<!--character:E143-->
<!--added:0.19-->
<svg width="24" height="24" viewBox="0 0 24 24" version="1.1" xmlns="http://www.w3.org/2000/svg"><path id="kiwi.com-a" d="M14.7896305,8.98387705 C15.0435204,9.23859487 15.0435204,9.60556123 14.7896305,9.86027905 L12.384889,12.2592317 L14.7896305,14.6581843 C14.9093627,14.7776282 14.9771628,14.9301711 14.9800479,15.0884703 C14.982933,15.2525259 14.9165755,15.4065078 14.7896305,15.5331472 C14.6641281,15.6569084 14.5141022,15.7231063 14.3525359,15.7231063 C14.1924121,15.7231063 14.0351735,15.6554693 13.9125562,15.5331472 L11.0822606,12.7096649 C10.9610858,12.5887818 10.8961708,12.4290435 10.8990559,12.2563535 C10.8961708,12.0879807 10.9610858,11.9296815 11.0822606,11.8087985 L13.9125562,8.98387705 C14.0351735,8.86155493 14.1909696,8.793918 14.3525359,8.793918 C14.5141022,8.793918 14.6655706,8.86011585 14.7896305,8.98387705 Z M10.5172712,9.41388282 L10.5172712,15.1031414 C10.5172712,15.2732713 10.457047,15.4289834 10.34807,15.5428839 C10.2333574,15.6611098 10.0799293,15.7231063 9.90069085,15.7231063 C9.54364783,15.7231063 9.28411054,15.4621443 9.28411054,15.1031414 L9.28411054,9.41388282 C9.28411054,9.06064705 9.54938346,8.793918 9.90069085,8.793918 C10.0713259,8.793918 10.2276218,8.85735626 10.3423344,8.97414033 C10.4556131,9.08948262 10.5172712,9.2466365 10.5172712,9.41388282 Z M21.4395509,11.7593757 C21.8129702,11.7593757 22.1148532,12.0626894 22.1148532,12.4346779 C22.1148532,12.8066665 21.8115395,13.1099802 21.4395509,13.1099802 C21.0675624,13.1099802 20.7642487,12.8066665 20.7642487,12.4346779 C20.7642487,12.0626894 21.0675624,11.7593757 21.4395509,11.7593757 Z M20.4726379,15.8589231 C20.7462587,16.0619211 20.8053032,16.4492009 20.6008076,16.7227442 C19.7064997,17.9335335 18.4536046,18.945644 16.9774926,19.6467788 C15.4668179,20.36519 13.7458872,20.7438316 12.0004747,20.7438316 C9.99152221,20.7438316 8.05025484,20.2500139 6.38836867,19.3185268 C4.74952426,18.399997 3.47358739,17.1114638 2.69880858,15.5925783 C2.15876758,14.5329577 1.8851468,13.4071108 1.8851468,12.2438316 C1.8851468,11.0805525 2.15876758,9.95470562 2.69880858,8.89508503 C3.21580782,7.88009519 3.9531438,6.97164329 4.89065497,6.19420427 C6.79591961,4.61485129 9.32043127,3.74383164 12.0004747,3.74383164 C13.7516477,3.74383164 15.4754585,4.12391294 16.9890134,4.84520359 C18.4680057,5.55065752 19.7223409,6.56564736 20.6152087,7.78219546 C20.816824,8.05573882 20.7577796,8.44301863 20.4827187,8.6445769 C20.3761506,8.7223208 20.2508611,8.76407215 20.118371,8.76407215 C19.9225161,8.76407215 19.7353019,8.67049153 19.6200932,8.51212432 C18.8481946,7.45970224 17.7537115,6.57716497 16.4576131,5.95953286 C15.1096708,5.31742581 13.5687538,4.97765617 12.0004747,4.97765617 C10.2017782,4.97765617 8.47076676,5.41532554 6.99177448,6.24459384 C5.56606625,7.04506809 4.46150239,8.15507825 3.7990521,9.45512907 C3.34829788,10.3405457 3.1193205,11.2777917 3.1193205,12.2438316 C3.12076061,13.2084319 3.34829788,14.1471175 3.7990521,15.0310945 C4.23828545,15.8949157 4.87049344,16.6723547 5.67839478,17.3418161 C7.36044247,18.7397666 9.60557291,19.5085674 11.9975945,19.5085674 C13.5658736,19.5085674 15.1039103,19.1702375 16.4489724,18.5310098 C17.7436307,17.9162571 18.8366737,17.0365993 19.6100124,15.9884963 C19.7252212,15.8315688 19.9109953,15.7379881 20.1068501,15.7379881 C20.2393402,15.7379881 20.3660698,15.7797395 20.4726379,15.8589231 Z"/></svg>

<!--description:Our logo, use for company related links like Press Kit or About page.-->
<!--category:kiwicom-->
<!--character:E143-->
<!--added:0.19-->
<svg width="24" height="24" viewBox="0 0 24 24" xmlns="http://www.w3.org/2000/svg"><path d="M14.7896 8.9839c.254.2547.254.6217 0 .8764l-2.4047 2.399 2.4047 2.3989c.1198.1194.1876.272.1904.4303.003.164-.0634.318-.1904.4446-.1255.1238-.2755.19-.437.19-.1602 0-.3174-.0676-.44-.19l-2.8303-2.8234a.618.618 0 0 1-.1832-.4533c-.003-.1684.062-.3267.1832-.4476l2.8303-2.825c.1226-.1222.2784-.1899.44-.1899.1615 0 .313.0662.437.19zm-4.2723.43v5.6892c0 .1702-.0603.3259-.1692.4398-.1147.1182-.2682.1802-.4474.1802-.357 0-.6166-.261-.6166-.62V9.414c0-.3533.2653-.62.6166-.62.1706 0 .327.0635.4416.1802.1133.1154.175.2725.175.4398zm10.9223 2.3455a.6756.6756 0 0 1 .6753.6753c0 .372-.3034.6753-.6753.6753-.372 0-.6754-.3033-.6754-.6753s.3034-.6753.6754-.6753zm-.967 4.0995c.2737.203.3327.5903.1282.8638-.8943 1.2108-2.1472 2.223-3.6233 2.924-1.5107.7185-3.2316 1.0971-4.977 1.0971-2.009 0-3.9502-.4938-5.6121-1.4253-1.6389-.9185-2.9148-2.207-3.6896-3.726-.54-1.0595-.8137-2.1854-.8137-3.3487 0-1.1632.2737-2.289.8137-3.3487.517-1.015 1.2543-1.9235 2.1919-2.7009 1.9052-1.5793 4.4297-2.4504 7.1098-2.4504 1.7511 0 3.475.3801 4.9885 1.1014 1.479.7055 2.7333 1.7204 3.6262 2.937.2016.2735.1426.6608-.1325.8624a.6134.6134 0 0 1-.3643.1195.618.618 0 0 1-.4983-.252c-.772-1.0524-1.8664-1.935-3.1625-2.5526-1.348-.642-2.8888-.9818-4.4571-.9818-1.7987 0-3.5297.4376-5.0087 1.2669C5.566 7.045 4.4615 8.155 3.799 9.455c-.4508.8854-.6798 1.8227-.6798 2.7887.0015.9646.229 1.9033.6798 2.7873.4392.8638 1.0714 1.6413 1.8793 2.3107 1.682 1.398 3.9272 2.1668 6.3192 2.1668 1.5683 0 3.1063-.3384 4.4514-.9776 1.2946-.6147 2.3877-1.4944 3.161-2.5425a.618.618 0 0 1 .4969-.2505.6094.6094 0 0 1 .3657.121z"/></svg>
